X: 37407
T: Sleepy Maggie
R: reel
M: 4/4
K: Amixolydian
|:e2Aa eAcd|e2Ag dGBd|e2Aa eAcd|efge dGBd:|
|:eA~A2 eAce|eA~A2 dGBd|eA~A2 eAce|efge dGBd:|
|:eAcA eAcd|eAcA dGBd|eAcA eAcd|efge dGBd:|

